client/img/mstsc.js.svg

<?xml version="1.0" encoding="UTF-8" standalone="no"?>
<svg
   xmlns:dc="http://purl.org/dc/elements/1.1/"
   xmlns:cc="http://creativecommons.org/ns#"
   xmlns:rdf="http://www.w3.org/1999/02/22-rdf-syntax-ns#"
   xmlns:svg="http://www.w3.org/2000/svg"
   xmlns="http://www.w3.org/2000/svg"
   xmlns:sodipodi="http://sodipodi.sourceforge.net/DTD/sodipodi-0.dtd"
   xmlns:inkscape="http://www.inkscape.org/namespaces/inkscape"
   viewBox="0 0 512 388"
   version="1.1"
   id="svg3039"
   inkscape:version="0.48.4 r9939"
   width="100%"
   height="100%"
   sodipodi:docname="cozy-logo-gradient.svg">
  <metadata
     id="metadata3053">
    <rdf:RDF>
      <cc:Work
         rdf:about="">
        <dc:format>image/svg+xml</dc:format>
        <dc:type
           rdf:resource="http://purl.org/dc/dcmitype/StillImage" />
      </cc:Work>
    </rdf:RDF>
  </metadata>
  <sodipodi:namedview
     pagecolor="#ffffff"
     bordercolor="#666666"
     borderopacity="1"
     objecttolerance="10"
     gridtolerance="10"
     guidetolerance="10"
     inkscape:pageopacity="0"
     inkscape:pageshadow="2"
     inkscape:window-width="1215"
     inkscape:window-height="896"
     id="namedview3051"
     showgrid="false"
     inkscape:zoom="1.8479381"
     inkscape:cx="314.90719"
     inkscape:cy="183.30702"
     inkscape:window-x="65"
     inkscape:window-y="24"
     inkscape:window-maximized="1"
     inkscape:current-layer="svg3039" />
  <defs
     id="defs3041">
    <linearGradient
       x1="50%"
       y1="0%"
       x2="50%"
       y2="100%"
       id="cozy-gradient">
      <stop
         stop-color="#20A8F1"
         offset="0%"
         id="stop3044" />
      <stop
         stop-color="#62C6ED"
         offset="100%"
         id="stop3046" />
    </linearGradient>
  </defs>
  <g
     id="cozycloud">
    <path
       d="M376.45312,387.847244 L135.65952,387.847244 C60.90752,387.847244 0.12288,327.304987 0.12288,252.88231 C0.12288,217.392021 13.84448,183.867192 38.77888,158.499528 C60.6208,136.299003 88.91392,122.479685 119.52128,118.884829 C123.136,88.4049344 137.00096,60.2265617 159.31392,38.4843045 C184.79104,13.6461942 218.44992,0 254.09536,0 C289.73056,0 323.39968,13.6461942 348.8768,38.4741207 C371.0976,60.1247244 384.9216,88.1503412 388.62848,118.467297 C457.6768,124.628451 511.98976,182.563675 511.98976,252.892493 C511.98976,327.304987 451.16416,387.847244 376.44288,387.847244 L376.45312,387.847244 Z"
       id="Path-copy"
       fill="#FFFFFF" />
    <path
       d="m 376.45312,387.84724 -240.7936,0 c -74.752,0 -135.53664,-60.54225 -135.53664,-134.96493 0,-35.49029 13.7216,-69.01512 38.656,-94.38278 C 60.6208,136.299 88.91392,122.47969 119.52128,118.88483 123.136,88.404934 137.00096,60.226562 159.31392,38.484305 184.79104,13.646194 218.44992,0 254.09536,0 c 35.6352,0 69.30432,13.646194 94.78144,38.474121 22.2208,21.650603 36.0448,49.67622 39.75168,79.993179 69.04832,6.16115 123.36128,64.09637 123.36128,134.42519 0,74.4125 -60.8256,134.95475 -135.54688,134.95475 z m -1.024,-28.31076 1.024,0 c 59.06432,0 107.1104,-47.84315 107.1104,-106.65417 0,-58.80084 -48.04608,-106.64399 -107.1104,-106.64399 l -1.0752,0 c -7.71072,0 -14.0288,-6.11024 -14.20288,-13.80913 -1.3312,-57.436224 -49.3568,-104.138796 -107.06944,-104.138796 -57.71264,0 -105.75872,46.722939 -107.07968,104.159156 -0.17408,7.55633 -6.28736,13.6462 -13.88544,13.81932 -57.67168,1.32389 -104.59136,49.14667 -104.59136,106.62362 0,58.81103 48.04608,106.65418 107.1104,106.65418 l 0.8704,0 0.33792,-0.0204 c 0.3072,0 0.6144,0 0.9216,0.0204 l 237.60896,0 z"
       id="Shape"
       inkscape:connector-curvature="0"
       style="fill:#21a8f1;fill-opacity:1"
       sodipodi:nodetypes="csscccsccscccsssscsccssccccc" />
  </g>
  <rect
     style="fill:#21a8f1;fill-opacity:1"
     id="rect3839"
     width="86.582985"
     height="23.81032"
     x="273.92233"
     y="-0.80842549"
     transform="matrix(0.70710678,0.70710678,-0.70710678,0.70710678,0,0)" />
  <rect
     style="fill:#21a8f1;fill-opacity:1"
     id="rect3839-9"
     width="86.582985"
     height="23.81032"
     x="-85.765259"
     y="336.68567"
     transform="matrix(0.70710678,-0.70710678,0.70710678,0.70710678,0,0)" />
  <rect
     style="fill:#21a8f1;fill-opacity:1"
     id="rect3839-4"
     width="86.582985"
     height="23.81032"
     x="24.054279"
     y="338.59888"
     transform="matrix(0.70710678,-0.70710678,0.70710678,0.70710678,0,0)" />
  <rect
     style="fill:#21a8f1;fill-opacity:1"
     id="rect3839-9-2"
     width="86.582985"
     height="23.81032"
     x="-425.17255"
     y="24.063583"
     transform="matrix(-0.70710678,-0.70710678,0.70710678,-0.70710678,0,0)" />
</svg>

<?xml version="1.0" encoding="UTF-8" standalone="no"?>
<svg
   xmlns:dc="http://purl.org/dc/elements/1.1/"
   xmlns:cc="http://creativecommons.org/ns#"
   xmlns:rdf="http://www.w3.org/1999/02/22-rdf-syntax-ns#"
   xmlns:svg="http://www.w3.org/2000/svg"
   xmlns="http://www.w3.org/2000/svg"
   xmlns:sodipodi="http://sodipodi.sourceforge.net/DTD/sodipodi-0.dtd"
   xmlns:inkscape="http://www.inkscape.org/namespaces/inkscape"
   viewBox="0 0 512 512"
   version="1.1"
   id="svg3039"
   inkscape:version="0.48.4 r9939"
   width="100%"
   height="100%"
   sodipodi:docname="mstsc.js.svg">
  <metadata
     id="metadata3053">
    <rdf:RDF>
      <cc:Work
         rdf:about="">
        <dc:format>image/svg+xml</dc:format>
        <dc:type
           rdf:resource="http://purl.org/dc/dcmitype/StillImage" />
      </cc:Work>
    </rdf:RDF>
  </metadata>
  <sodipodi:namedview
     pagecolor="#ffffff"
     bordercolor="#666666"
     borderopacity="1"
     objecttolerance="10"
     gridtolerance="10"
     guidetolerance="10"
     inkscape:pageopacity="0"
     inkscape:pageshadow="2"
     inkscape:window-width="1920"
     inkscape:window-height="1124"
     id="namedview3051"
     showgrid="false"
     inkscape:zoom="1.8479381"
     inkscape:cx="314.90719"
     inkscape:cy="221.39632"
     inkscape:window-x="0"
     inkscape:window-y="24"
     inkscape:window-maximized="1"
     inkscape:current-layer="svg3039" />
  <defs
     id="defs3041">
    <linearGradient
       x1="50%"
       y1="0%"
       x2="50%"
       y2="100%"
       id="cozy-gradient">
      <stop
         stop-color="#20A8F1"
         offset="0%"
         id="stop3044" />
      <stop
         stop-color="#62C6ED"
         offset="100%"
         id="stop3046" />
    </linearGradient>
  </defs>
  <g
     id="cozycloud"
     transform="translate(0,60)">
    <path
       d="m 376.45312,387.84724 -240.7936,0 c -74.752,0 -135.53664,-60.54225 -135.53664,-134.96493 0,-35.49029 13.7216,-69.01512 38.656,-94.38278 C 60.6208,136.299 88.91392,122.47969 119.52128,118.88483 123.136,88.404934 137.00096,60.226562 159.31392,38.484304 184.79104,13.646194 218.44992,0 254.09536,0 c 35.6352,0 69.30432,13.646194 94.78144,38.474121 22.2208,21.650603 36.0448,49.67622 39.75168,79.993179 69.04832,6.16115 123.36128,64.09637 123.36128,134.42519 0,74.4125 -60.8256,134.95475 -135.54688,134.95475 l 0.0102,0 z"
       id="Path-copy"
       inkscape:connector-curvature="0"
       style="fill:#ffffff" />
    <path
       d="m 376.45312,387.84724 -240.7936,0 c -74.752,0 -135.53664,-60.54225 -135.53664,-134.96493 0,-35.49029 13.7216,-69.01512 38.656,-94.38278 C 60.6208,136.299 88.91392,122.47969 119.52128,118.88483 123.136,88.404934 137.00096,60.226562 159.31392,38.484305 184.79104,13.646194 218.44992,0 254.09536,0 c 35.6352,0 69.30432,13.646194 94.78144,38.474121 22.2208,21.650603 36.0448,49.67622 39.75168,79.993179 69.04832,6.16115 123.36128,64.09637 123.36128,134.42519 0,74.4125 -60.8256,134.95475 -135.54688,134.95475 z m -1.024,-28.31076 1.024,0 c 59.06432,0 107.1104,-47.84315 107.1104,-106.65417 0,-58.80084 -48.04608,-106.64399 -107.1104,-106.64399 l -1.0752,0 c -7.71072,0 -14.0288,-6.11024 -14.20288,-13.80913 -1.3312,-57.436224 -49.3568,-104.138796 -107.06944,-104.138796 -57.71264,0 -105.75872,46.722939 -107.07968,104.159156 -0.17408,7.55633 -6.28736,13.6462 -13.88544,13.81932 -57.67168,1.32389 -104.59136,49.14667 -104.59136,106.62362 0,58.81103 48.04608,106.65418 107.1104,106.65418 l 0.8704,0 0.33792,-0.0204 c 0.3072,0 0.6144,0 0.9216,0.0204 l 237.60896,0 z"
       id="Shape"
       inkscape:connector-curvature="0"
       style="fill:#21a8f1;fill-opacity:1"
       sodipodi:nodetypes="csscccsccscccsssscsccssccccc" />
  </g>
  <rect
     style="fill:#21a8f1;fill-opacity:1"
     id="rect3839"
     width="86.582985"
     height="23.81032"
     x="316.34879"
     y="41.617985"
     transform="matrix(0.70710678,0.70710678,-0.70710678,0.70710678,0,0)" />
  <rect
     style="fill:#21a8f1;fill-opacity:1"
     id="rect3839-9"
     width="86.582985"
     height="23.81032"
     x="-128.1917"
     y="379.11212"
     transform="matrix(0.70710678,-0.70710678,0.70710678,0.70710678,0,0)" />
  <rect
     style="fill:#21a8f1;fill-opacity:1"
     id="rect3839-4"
     width="86.582985"
     height="23.81032"
     x="-18.37212"
     y="381.02533"
     transform="matrix(0.70710678,-0.70710678,0.70710678,0.70710678,0,0)" />
  <rect
     style="fill:#21a8f1;fill-opacity:1"
     id="rect3839-9-2"
     width="86.582985"
     height="23.81032"
     x="-467.599"
     y="-18.362818"
     transform="matrix(-0.70710678,-0.70710678,0.70710678,-0.70710678,0,0)" />
</svg>
